img/icons/chart.svg

<svg width="32" height="32" viewBox="0 0 32 32" fill="none" xmlns="http://www.w3.org/2000/svg"><path d="M5.33333 5.33337v-1h-1v1h1zm21.33337.0h1v-1h-1v1zM8.62623 15.2929C8.2357 15.6835 8.2357 16.3166 8.62623 16.7071 9.01675 17.0977 9.64992 17.0977 10.0404 16.7071L8.62623 15.2929zM13.3333 12 14.0404 11.2929C13.6499 10.9024 13.0168 10.9024 12.6262 11.2929L13.3333 12zM17.3333 16 16.6262 16.7071C17.0168 17.0977 17.6499 17.0977 18.0404 16.7071L17.3333 16zM23.3738 11.3738C23.7643 10.9833 23.7643 10.3501 23.3738 9.9596 22.9832 9.56908 22.3501 9.56908 21.9596 9.9596L23.3738 11.3738zM9.95956 27.2929C9.56904 27.6835 9.56904 28.3166 9.95956 28.7071 10.3501 29.0977 10.9832 29.0977 11.3738 28.7071L9.95956 27.2929zM16 22.6667 16.7071 21.9596C16.3166 21.5691 15.6834 21.5691 15.2929 21.9596L16 22.6667zM20.6262 28.7071C21.0168 29.0977 21.6499 29.0977 22.0404 28.7071 22.431 28.3166 22.431 27.6835 22.0404 27.2929L20.6262 28.7071zM4 4.33337C3.44772 4.33337 3 4.78109 3 5.33337 3 5.88566 3.44772 6.33337 4 6.33337v-2zm24 2C28.5523 6.33337 29 5.88566 29 5.33337 29 4.78109 28.5523 4.33337 28 4.33337v2zm-22.66667.0H26.6667v-2H5.33333v2zm20.33337-1V21.3334h2V5.33337h-2zM25.3333 21.6667H6.66667v2H25.3333v-2zM6.33333 21.3334V5.33337h-2V21.3334h2zM6.66667 21.6667C6.48257 21.6667 6.33333 21.5175 6.33333 21.3334h-2C4.33333 22.622 5.378 23.6667 6.66667 23.6667v-2zM25.6667 21.3334C25.6667 21.5175 25.5174 21.6667 25.3333 21.6667v2C26.622 23.6667 27.6667 22.622 27.6667 21.3334h-2zM10.0404 16.7071l4-4L12.6262 11.2929 8.62623 15.2929 10.0404 16.7071zM12.6262 12.7071l4 4L18.0404 15.2929 14.0404 11.2929 12.6262 12.7071zM18.0404 16.7071 23.3738 11.3738 21.9596 9.9596 16.6262 15.2929 18.0404 16.7071zM11.3738 28.7071 16.7071 23.3738 15.2929 21.9596 9.95956 27.2929 11.3738 28.7071zM15.2929 23.3738 20.6262 28.7071 22.0404 27.2929 16.7071 21.9596 15.2929 23.3738zM4 6.33337H28v-2H4v2z" fill="#000"/></svg>

<svg xmlns="http://www.w3.org/2000/svg" width="32" height="32" fill="none"><path fill="#000" d="M5.333 5.333v-1h-1v1h1zm21.334 0h1v-1h-1v1zm-18.04 9.96a1 1 0 1 0 1.413 1.414l-1.414-1.414zM13.332 12l.707-.707a1 1 0 0 0-1.414 0l.707.707zm4 4-.707.707a1 1 0 0 0 1.414 0L17.333 16zm6.04-4.626A1 1 0 0 0 21.96 9.96l1.414 1.414zM9.96 27.293a1 1 0 1 0 1.414 1.414L9.96 27.293zM16 22.667l.707-.707a1 1 0 0 0-1.414 0l.707.707zm4.626 6.04a1 1 0 1 0 1.414-1.414l-1.414 1.414zM4 4.333a1 1 0 0 0 0 2v-2zm24 2a1 1 0 1 0 0-2v2zm-22.667 0h21.334v-2H5.333v2zm20.334-1v16h2v-16h-2zm-.334 16.334H6.667v2h18.666v-2zm-19-.334v-16h-2v16h2zm.334.334a.333.333 0 0 1-.334-.334h-2a2.333 2.333 0 0 0 2.334 2.334v-2zm19-.334c0 .184-.15.334-.334.334v2a2.333 2.333 0 0 0 2.334-2.334h-2zM10.04 16.707l4-4-1.414-1.414-4 4 1.414 1.414zm2.586-4 4 4 1.414-1.414-4-4-1.414 1.414zm5.414 4 5.334-5.333L21.96 9.96l-5.334 5.333 1.414 1.414zm-6.666 12 5.333-5.333-1.414-1.414-5.333 5.333 1.414 1.414zm3.919-5.333 5.333 5.333 1.414-1.414-5.333-5.333-1.414 1.414zM4 6.334h24v-2H4v2z"/></svg>
